img/logo-obsocial-footer.svg

<?xml version="1.0" encoding="UTF-8" standalone="no"?>
<svg width="210px" height="54px" viewBox="0 0 210 54" version="1.1" xmlns="http://www.w3.org/2000/svg" xmlns:xlink="http://www.w3.org/1999/xlink" xmlns:sketch="http://www.bohemiancoding.com/sketch/ns">
    <!-- Generator: Sketch 3.5.2 (25235) - http://www.bohemiancoding.com/sketch -->
    <title>logo copy</title>
    <desc>Created with Sketch.</desc>
    <defs>
        <path id="path-1" d="M0,0.086 L209.697241,0.086 L209.697241,54 L0,54"></path>
        <path id="path-3" d="M0,0.086 L209.697241,0.086 L209.697241,54 L0,54 L107.953125,36.4570313 C107.953125,36.4570313 109.861097,19.7068988 110.815083,11.3318326 C111.006185,9.65414656 111.388388,6.29877441 111.388388,6.29877441 C111.388388,6.29877441 164.462709,6.37086167 113.643903,3.536403"></path>
    </defs>
    <g id="HTML" stroke="none" stroke-width="1" fill="none" fill-rule="evenodd" sketch:type="MSPage">
        <g id="1-Home" sketch:type="MSArtboardGroup" transform="translate(-132.000000, -4164.000000)">
            <g id="Group" sketch:type="MSLayerGroup" transform="translate(2.000000, 4147.000000)">
                <g id="logo-copy" transform="translate(130.000000, 17.000000)">
                    <path d="M7.76752253,32.3206333 C8.60873684,33.0659667 9.55859507,33.6113 10.6157176,33.9573 C11.673185,34.3039667 12.7130625,34.4766333 13.7339704,34.4766333 C14.7552232,34.4766333 15.7937211,34.3039667 16.8511885,33.9573 C17.9086559,33.6113 18.8671367,33.0736333 19.7269757,32.3466333 C21.6629067,30.6499667 22.6303549,28.1909667 22.6303549,24.9699667 C22.6303549,21.8529667 21.6629067,19.4293 19.7269757,17.6973 C18.1149069,16.2773 16.1262059,15.5669667 13.7605278,15.5669667 C9.89107993,15.5669667 7.20257418,17.2473 5.69776974,20.6063 C5.16041349,21.8186333 4.89173536,23.2813 4.89173536,24.9959667 C4.89173536,26.7099667 5.16041349,28.1739667 5.69776974,29.3853 C6.23512599,30.5983 6.92527352,31.5769667 7.76752253,32.3206333 M13.7605278,11.2556333 C17.9172785,11.2556333 21.2504048,12.5203 23.758872,15.0476333 C26.2673393,17.6109667 27.5207107,20.9356333 27.5207107,25.0219667 C27.5207107,29.1089667 26.2673393,32.4336333 23.758872,34.9959667 C21.2504048,37.5249667 17.9172785,38.7883 13.7605278,38.7883 C9.5685972,38.7883 6.23512599,37.5249667 3.76321826,34.9959667 C1.25475099,32.4686333 0,29.1439667 0,25.0219667 C0,20.9006333 1.25475099,17.5759667 3.76321826,15.0476333 C6.23512599,12.5203 9.5685972,11.2556333 13.7605278,11.2556333" id="Fill-1" fill="#FFFFFF" sketch:type="MSShapeGroup"></path>
                    <path d="M39.2379051,30.4767333 C41.6749778,33.0740667 44.5059278,34.3727333 47.7317898,34.3727333 C51.8161112,34.3727333 54.539452,32.6064 55.9018122,29.0737333 C56.3315592,27.8967333 56.5467777,26.5460667 56.5467777,25.0217333 C56.5467777,22.0437333 55.7217737,19.7060667 54.074525,18.0087333 C52.4972913,16.4500667 50.3823564,15.6710667 47.7317898,15.6710667 C44.5059278,15.6710667 41.6749778,16.9694 39.2379051,19.5670667 L39.2379051,30.4767333 Z M39.2379051,15.2034 C41.8898513,12.5720667 44.9532648,11.2554 48.430215,11.2554 C51.9047509,11.2554 54.8805594,12.4500667 57.352812,14.8397333 C60.0761528,17.4720667 61.438513,20.8660667 61.438513,25.0217333 C61.438513,29.2477333 60.0761528,32.6580667 57.352812,35.2557333 C54.8443448,37.6110667 51.8609484,38.7884 48.4029678,38.7884 C44.9446423,38.7884 41.8898513,37.4727333 39.2379051,34.8404 L39.2379051,36.1907333 C39.2379051,36.8490667 39.0054416,37.4034 38.5391351,37.8534 C38.0731734,38.3027333 37.4920147,38.5287333 36.791865,38.5287333 C36.0934398,38.5287333 35.5109015,38.3027333 35.0459745,37.8534 C34.5800129,37.4034 34.3472045,36.8490667 34.3472045,36.1907333 L34.3472045,2.47573333 C34.3472045,1.78373333 34.5800129,1.21173333 35.0459745,0.7614 C35.5109015,0.312066667 36.0934398,0.0860666667 36.791865,0.0860666667 C37.4920147,0.0860666667 38.0731734,0.312066667 38.5391351,0.7614 C39.0054416,1.21173333 39.2379051,1.78373333 39.2379051,2.47573333 L39.2379051,15.2034 Z" id="Fill-3" fill="#FFFFFF" sketch:type="MSShapeGroup"></path>
                    <path d="M76.972282,34.4248 C80.9503737,34.4248 82.9387298,33.1954667 82.9387298,30.7364667 C82.9387298,29.9748 82.5438178,29.3944667 81.7564081,28.9958 C80.9679637,28.5984667 79.9729234,28.2428 78.7733566,27.9311333 C77.5720653,27.6194667 76.2735119,27.2994667 74.8763167,26.9701333 C73.4777418,26.6411333 72.1791884,26.1828 70.9792767,25.5931333 C69.7783303,25.0051333 68.7836349,24.2344667 67.9962252,23.2814667 C67.2074359,22.3294667 66.8125239,21.1608 66.8125239,19.7748 C66.8125239,18.3898 67.0273974,17.1954667 67.4585241,16.1904667 C67.888616,15.1864667 68.5335815,14.3204667 69.3934204,13.5928 C71.2917573,12.0344667 73.9264584,11.2554667 77.2947647,11.2554667 C79.9818908,11.2554667 82.5800325,11.6884667 85.0884997,12.5541333 C85.5896413,12.7278 85.9759308,13.0044667 86.2449538,13.3851333 C86.5132871,13.7668 86.6471088,14.1908 86.6471088,14.6581333 C86.6471088,15.1254667 86.4408578,15.5671333 86.0300803,15.9824667 C85.6172334,16.3981333 85.2136989,16.6058 84.8198216,16.6058 C84.4249096,16.6058 83.9413579,16.5201333 83.3688218,16.3461333 C81.6491438,15.8268 79.7670173,15.5671333 77.7245117,15.5671333 C75.682351,15.5671333 74.1313298,15.9138 73.075242,16.6058 C72.0181195,17.2991333 71.4893857,18.1301333 71.4893857,19.0994667 C71.4893857,20.0694667 71.8929203,20.7881333 72.6992996,21.2558 C73.5053339,21.7231333 74.5000293,22.1128 75.682351,22.4244667 C76.8646727,22.7361333 78.1632262,23.0474667 79.579391,23.3591333 C80.9941762,23.6714667 82.2941093,24.1044667 83.476431,24.6584667 C86.2708214,26.0438 87.6697412,28.1908 87.6697412,31.1001333 C87.6697412,33.3164667 86.8081777,35.1181333 85.0884997,36.5024667 C83.2249979,38.0268 80.6268563,38.7884667 77.2947647,38.7884667 C73.6753703,38.7884667 70.4143283,38.0091333 67.5123287,36.4504667 C66.9025431,36.0348 66.5976504,35.5151333 66.5976504,34.8921333 C66.5976504,34.2691333 66.7949339,33.7411333 67.1888112,33.3071333 C67.5837232,32.8751333 68.0134703,32.6581333 68.4797769,32.6581333 C68.9447038,32.6581333 69.5010297,32.7971333 70.1456502,33.0738 C72.2229908,33.9748 74.5000293,34.4248 76.972282,34.4248" id="Fill-5" fill="#FFFFFF" sketch:type="MSShapeGroup"></path>
                    <path d="M101.592304,31.1334667 C102.587689,32.0154667 103.712067,32.6611333 104.963024,33.0704667 C106.214671,33.4808 107.445624,33.6854667 108.654503,33.6854667 C109.862692,33.6854667 111.091921,33.4808 112.343223,33.0704667 C113.594869,32.6611333 114.72925,32.0248 115.747054,31.1641333 C118.038578,29.1564667 119.183305,26.2454667 119.183305,22.4334667 C119.183305,18.7444667 118.038578,15.8758 115.747054,13.8258 C113.838715,12.1451333 111.485453,11.3048 108.685199,11.3048 C104.105599,11.3048 100.92354,13.2931333 99.1428145,17.2691333 C98.5064715,18.7038 98.1884725,20.4348 98.1884725,22.4641333 C98.1884725,24.4928 98.5064715,26.2254667 99.1428145,27.6594667 C99.7788125,29.0948 100.595194,30.2528 101.592304,31.1334667 M108.685199,6.20146667 C113.605216,6.20146667 117.550198,7.69846667 120.519108,10.6898 C123.487674,13.7234667 124.971439,17.6584667 124.971439,22.4951333 C124.971439,27.3321333 123.487674,31.2668 120.519108,34.3001333 C117.550198,37.2931333 113.605216,38.7884667 108.685199,38.7884667 C103.723794,38.7884667 99.7788125,37.2931333 96.8530146,34.3001333 C93.8837592,31.3084667 92.398959,27.3734667 92.398959,22.4951333 C92.398959,17.6171333 93.8837592,13.6821333 96.8530146,10.6898 C99.7788125,7.69846667 103.723794,6.20146667 108.685199,6.20146667" id="Fill-7" fill="#F5F6F7" sketch:type="MSShapeGroup"></path>
                    <path d="M144.927947,34.3727333 C146.933548,34.3727333 148.851199,33.8880667 150.678486,32.9180667 C151.324487,32.5727333 151.897023,32.3984 152.399199,32.3984 C152.900686,32.3984 153.348023,32.6247333 153.742935,33.0740667 C154.136467,33.5240667 154.333751,34.0610667 154.333751,34.6847333 C154.333751,35.3080667 153.921593,35.8794 153.097624,36.3984 C150.553287,37.9920667 147.686123,38.7880667 144.497855,38.7880667 C140.519763,38.7880667 137.169047,37.5767333 134.445361,35.1517333 C131.578541,32.5894 130.145131,29.2130667 130.145131,25.0217333 C130.145131,20.8317333 131.578541,17.4554 134.445361,14.8920667 C137.169047,12.4684 140.519763,11.2554 144.497855,11.2554 C146.64728,11.2554 148.412485,11.5244 149.79209,12.0604 C151.170661,12.5980667 152.272965,13.1250667 153.097624,13.6447333 C153.921593,14.1647333 154.333751,14.7360667 154.333751,15.3590667 C154.333751,15.9827333 154.136467,16.5200667 153.742935,16.9697333 C153.348023,17.4200667 152.954145,17.6450667 152.560613,17.6450667 C151.950827,17.6450667 151.324487,17.4717333 150.678486,17.1250667 C148.851199,16.1567333 146.933548,15.6710667 144.927947,15.6710667 C141.773479,15.6710667 139.337441,16.5277333 137.616384,18.2424 C135.896361,19.9564 135.036867,22.2164 135.036867,25.0217333 C135.036867,27.8270667 135.896361,30.0867333 137.616384,31.8010667 C139.337441,33.5160667 141.773479,34.3727333 144.927947,34.3727333" id="Fill-9" fill="#FFFFFF" sketch:type="MSShapeGroup"></path>
                    <path d="M161.64421,12.1904333 C162.109137,11.7404333 162.691675,11.5151 163.391135,11.5151 C164.09025,11.5151 164.671409,11.7404333 165.13737,12.1904333 C165.603332,12.6411 165.83614,13.2124333 165.83614,13.9044333 L165.83614,36.1907667 C165.83614,36.8491 165.603332,37.4034333 165.13737,37.8534333 C164.671409,38.3027667 164.09025,38.5287667 163.391135,38.5287667 C162.691675,38.5287667 162.109137,38.3027667 161.64421,37.8534333 C161.177558,37.4034333 160.94544,36.8491 160.94544,36.1907667 L160.94544,13.9044333 C160.94544,13.2124333 161.177558,12.6411 161.64421,12.1904333 L161.64421,12.1904333 Z M166.319692,3.72243333 C166.319692,4.4501 166.051014,5.07343333 165.513658,5.59276667 C164.976301,6.11243333 164.331336,6.3721 163.578416,6.3721 L163.256624,6.3721 C162.504049,6.3721 161.859083,6.11243333 161.321382,5.59276667 C160.784371,5.07343333 160.515693,4.4501 160.515693,3.72243333 L160.515693,3.51476667 C160.515693,2.78743333 160.784371,2.16443333 161.321382,1.64476667 C161.859083,1.12543333 162.504049,0.8651 163.256624,0.8651 L163.578416,0.8651 C164.331336,0.8651 164.976301,1.12543333 165.513658,1.64476667 C166.051014,2.16443333 166.319692,2.78743333 166.319692,3.51476667 L166.319692,3.72243333 Z" id="Fill-11" fill="#FFFFFF" sketch:type="MSShapeGroup"></path>
                    <path d="M177.231783,30.4767333 C177.231783,33.2477333 179.13012,34.6324 182.929898,34.6324 C184.613361,34.6324 186.181628,34.2344 187.632627,33.4377333 C189.083972,32.6417333 190.274916,31.7414 191.20753,30.7364 L191.20753,26.3724 L185.348001,26.3724 C182.803319,26.3724 180.815308,26.6840667 179.381553,27.3077333 C177.947799,27.9310667 177.231783,28.9880667 177.231783,30.4767333 M175.56591,13.1254 C178.575519,11.8787333 181.694117,11.2554 184.918254,11.2554 C188.573863,11.2554 191.403434,12.3294 193.410759,14.4764 C195.202866,16.3460667 196.09892,18.6840667 196.09892,21.4894 L196.09892,36.1907333 C196.09892,36.8490667 195.856454,37.4034 195.373248,37.8534 C194.889351,38.3027333 194.306813,38.5287333 193.625633,38.5287333 C192.944798,38.5287333 192.371916,38.3027333 191.905955,37.8534 C191.439648,37.4034 191.20753,36.8490667 191.20753,36.1907333 L191.20753,34.8404 C190.239737,35.8100667 188.940148,36.7110667 187.31049,37.5417333 C185.679451,38.3727333 183.609699,38.7884 181.102956,38.7884 C178.628979,38.7884 176.568193,38.0960667 174.921289,36.7110667 C173.200232,35.2557333 172.340048,33.3517333 172.340048,30.9960667 C172.340048,28.4337333 173.344056,26.4240667 175.350692,24.9700667 C177.535641,23.3774 180.653894,22.5800667 184.703036,22.5800667 L191.20753,22.5800667 L191.20753,22.1647333 C191.20753,19.8447333 190.616369,18.1907333 189.433702,17.2037333 C188.25138,16.2164 186.441683,15.7227333 184.004955,15.7227333 C181.926235,15.7227333 179.542622,16.1384 176.855496,16.9694 C176.568193,17.0394 176.246055,17.0734 175.888393,17.0734 C175.529695,17.0734 175.153753,16.8914 174.759531,16.5280667 C174.364619,16.1644 174.16837,15.6020667 174.16837,14.8397333 C174.16837,14.0784 174.633297,13.5070667 175.56591,13.1254" id="Fill-13" fill="#FFFFFF" sketch:type="MSShapeGroup"></path>
                    <g id="Group-17">
                        <mask id="mask-2" sketch:name="Clip 16" fill="white">
                            <use xlink:href="#path-1"></use>
                        </mask>
                        <g id="Clip-16"></g>
                        <path d="M205.505276,0.761233333 C205.970203,0.3119 206.552741,0.0859 207.252201,0.0859 C207.951316,0.0859 208.53213,0.3119 208.998436,0.761233333 C209.464398,1.2119 209.697206,1.78356667 209.697206,2.4759 L209.697206,36.1909 C209.697206,36.8489 209.464398,37.4035667 208.998436,37.8532333 C208.53213,38.3029 207.951316,38.5285667 207.252201,38.5285667 C206.552741,38.5285667 205.970203,38.3029 205.505276,37.8532333 C205.038624,37.4035667 204.806506,36.8489 204.806506,36.1909 L204.806506,2.4759 C204.806506,1.78356667 205.038624,1.2119 205.505276,0.761233333" id="Fill-15" fill="#FFFFFF" sketch:type="MSShapeGroup" mask="url(#mask-2)"></path>
                    </g>
                    <path d="M117.254307,37.3300667 L100.901846,41.7644 C100.475548,41.8800667 100.033039,41.6397333 99.9137034,41.2277333 L99.2459744,38.9290667 C99.1259488,38.5170667 99.3749675,38.0894 99.8009207,37.9737333 L116.154072,33.5394 C116.580025,33.4237333 117.022533,33.6640667 117.142214,34.0760667 L117.809598,36.3747333 C117.929279,36.7867333 117.680605,37.2144 117.254307,37.3300667" id="Fill-18" fill="#F5F6F7" sketch:type="MSShapeGroup"></path>
                    <path d="M117.254307,43.5569667 L100.901846,47.9913 C100.475548,48.1066333 100.033039,47.8666333 99.9137034,47.4543 L99.2459744,45.1559667 C99.1259488,44.7439667 99.3749675,44.3159667 99.8009207,44.2006333 L116.154072,39.7663 C116.580025,39.6503 117.022533,39.8909667 117.142214,40.3026333 L117.809598,42.6016333 C117.929279,43.0136333 117.680605,43.4409667 117.254307,43.5569667" id="-" fill="#F5F6F7" sketch:type="MSShapeGroup"></path>
                    <g id="Group-24">
                        <mask id="mask-4" sketch:name="Clip 23" fill="white">
                            <use xlink:href="#path-3"></use>
                        </mask>
                        <g id="Clip-23"></g>
                        <path d="M100.901846,53.9711333 C100.475548,54.0864667 100.033039,53.8464667 99.9137034,53.4341333 L99.2459744,51.1358 C99.1259488,50.7238 99.3749675,50.2958 99.8009207,50.1804667 L116.154072,45.7461333 C116.580025,45.6301333 117.022533,45.8708 117.142214,46.2824667 L117.809598,48.5814667 C117.929279,48.9931333 117.680605,49.4208 117.254307,49.5364667 L100.901846,53.9711333 Z" id="Fill-22" fill="#F5F6F7" sketch:type="MSShapeGroup" mask="url(#mask-4)"></path>
                    </g>
                    <path d="M101.980662,24.0377667 C101.980662,24.0377667 103.03675,20.0507667 104.193549,20.1041 C105.481066,20.1634333 104.92474,24.7054333 106.213981,24.6887667 C107.326288,24.6741 106.739266,20.7517667 107.849848,20.6901 C108.387247,20.6602685 108.650766,21.5131967 108.891831,22.4388628 C109.176023,23.5301317 109.429008,24.7224923 110.062735,24.6887667 C111.150899,24.6307667 110.609749,20.7314333 111.698602,20.7831 C112.549818,20.8237667 111.836562,23.7334333 112.660532,23.9447667 C113.589696,24.1831 114.680964,20.7831 114.680964,20.7831" id="Stroke-25" stroke="#FFFFFF" sketch:type="MSShapeGroup"></path>
                </g>
            </g>
        </g>
    </g>
</svg>

<svg width="210" height="54" viewBox="0 0 210 54" xmlns="http://www.w3.org/2000/svg" xmlns:xlink="http://www.w3.org/1999/xlink"><title>logo copy</title><defs><path id="a" d="M0 .086h209.697V54H0"/><path id="c" d="M0 .086h209.697V54H0l107.953-17.543 2.862-25.125.573-5.033s53.075.072 2.256-2.763"/></defs><g fill="none" fill-rule="evenodd"><path d="M7.768 32.32a8.011 8.011 0 0 0 2.848 1.637 9.974 9.974 0 0 0 3.118.52c1.021 0 2.06-.173 3.117-.52a8.522 8.522 0 0 0 2.876-1.61c1.936-1.697 2.903-4.156 2.903-7.377 0-3.117-.967-5.54-2.903-7.273-1.612-1.42-3.6-2.13-5.966-2.13-3.87 0-6.558 1.68-8.063 5.04-.538 1.212-.806 2.674-.806 4.389 0 1.714.268 3.178.806 4.39.537 1.212 1.227 2.191 2.07 2.935m5.993-21.065c4.156 0 7.49 1.264 9.998 3.792 2.508 2.563 3.762 5.888 3.762 9.974 0 4.087-1.254 7.412-3.762 9.974-2.509 2.529-5.842 3.792-9.998 3.792-4.192 0-7.526-1.263-9.998-3.792C1.255 32.469 0 29.144 0 25.022c0-4.121 1.255-7.446 3.763-9.974 2.472-2.528 5.806-3.792 9.998-3.792M39.238 30.477c2.437 2.597 5.268 3.896 8.494 3.896 4.084 0 6.807-1.767 8.17-5.3.43-1.176.645-2.527.645-4.051 0-2.978-.825-5.316-2.472-7.013-1.578-1.559-3.693-2.338-6.343-2.338-3.226 0-6.057 1.298-8.494 3.896v10.91zm0-15.274c2.652-2.63 5.715-3.948 9.192-3.948 3.475 0 6.45 1.195 8.923 3.585 2.723 2.632 4.086 6.026 4.086 10.182 0 4.226-1.363 7.636-4.086 10.234-2.509 2.355-5.492 3.532-8.95 3.532-3.458 0-6.513-1.315-9.165-3.948v1.35a2.22 2.22 0 0 1-.699 1.663c-.466.45-1.047.676-1.747.676-.699 0-1.281-.226-1.746-.676a2.22 2.22 0 0 1-.699-1.662V2.476c0-.692.233-1.264.699-1.715.465-.449 1.047-.675 1.746-.675.7 0 1.281.226 1.747.675.466.45.699 1.023.699 1.715v12.727zM76.972 34.425c3.978 0 5.967-1.23 5.967-3.689 0-.761-.395-1.342-1.183-1.74-.788-.398-1.783-.753-2.983-1.065-1.2-.312-2.5-.632-3.897-.96a18.306 18.306 0 0 1-3.897-1.378c-1.2-.588-2.195-1.359-2.983-2.312-.789-.952-1.183-2.12-1.183-3.506 0-1.385.214-2.58.646-3.585a6.956 6.956 0 0 1 1.934-2.597c1.899-1.559 4.533-2.338 7.902-2.338 2.687 0 5.285.433 7.793 1.3.502.173.888.45 1.157.83.268.382.402.806.402 1.273 0 .467-.206.91-.617 1.324-.413.416-.816.624-1.21.624-.395 0-.879-.086-1.451-.26-1.72-.52-3.602-.779-5.644-.779-2.043 0-3.594.347-4.65 1.039-1.057.693-1.586 1.524-1.586 2.493 0 .97.404 1.69 1.21 2.157.806.467 1.801.857 2.983 1.168 1.183.312 2.481.623 3.897.935 1.415.312 2.715.745 3.897 1.3 2.795 1.385 4.194 3.532 4.194 6.441 0 2.216-.862 4.018-2.582 5.402-1.863 1.525-4.461 2.286-7.793 2.286-3.62 0-6.88-.779-9.783-2.338-.61-.415-.914-.935-.914-1.558s.197-1.15.59-1.585c.396-.432.825-.649 1.292-.649.465 0 1.021.14 1.666.416 2.077.9 4.354 1.35 6.826 1.35" fill="#FFF"/><path d="M101.592 31.133a9.48 9.48 0 0 0 3.371 1.937c1.252.41 2.483.615 3.692.615 1.208 0 2.437-.204 3.688-.615a10.081 10.081 0 0 0 3.404-1.906c2.292-2.008 3.436-4.919 3.436-8.73 0-3.69-1.144-6.558-3.436-8.608-1.908-1.68-4.262-2.521-7.062-2.521-4.58 0-7.761 1.988-9.542 5.964-.637 1.435-.955 3.166-.955 5.195 0 2.029.318 3.761.955 5.195.636 1.436 1.452 2.594 2.45 3.474m7.092-24.932c4.92 0 8.865 1.497 11.834 4.489 2.969 3.033 4.452 6.968 4.452 11.805s-1.483 8.772-4.452 11.805c-2.969 2.993-6.914 4.488-11.834 4.488-4.961 0-8.906-1.495-11.832-4.488-2.97-2.992-4.454-6.927-4.454-11.805s1.485-8.813 4.454-11.805c2.926-2.992 6.87-4.489 11.832-4.489" fill="#F5F6F7"/><path d="M144.928 34.373c2.006 0 3.923-.485 5.75-1.455.646-.345 1.219-.52 1.721-.52s.949.227 1.344.676c.393.45.59.987.59 1.61 0 .624-.411 1.195-1.235 1.714-2.545 1.594-5.412 2.39-8.6 2.39-3.978 0-7.329-1.211-10.053-3.636-2.866-2.563-4.3-5.939-4.3-10.13 0-4.19 1.434-7.567 4.3-10.13 2.724-2.424 6.075-3.637 10.053-3.637 2.15 0 3.914.27 5.294.805 1.379.538 2.481 1.065 3.306 1.585.824.52 1.236 1.091 1.236 1.714 0 .624-.198 1.161-.591 1.61-.395.451-.789.676-1.182.676-.61 0-1.237-.173-1.883-.52-1.827-.968-3.744-1.454-5.75-1.454-3.155 0-5.59.857-7.312 2.571-1.72 1.714-2.58 3.974-2.58 6.78 0 2.805.86 5.065 2.58 6.78 1.721 1.714 4.157 2.57 7.312 2.57M161.644 12.19c.465-.45 1.048-.675 1.747-.675.7 0 1.28.225 1.746.675.466.451.7 1.022.7 1.714v22.287a2.22 2.22 0 0 1-.7 1.662c-.466.45-1.047.676-1.746.676-.7 0-1.282-.226-1.747-.676a2.218 2.218 0 0 1-.699-1.662V13.904c0-.692.233-1.263.7-1.714zm4.676-8.468c0 .728-.269 1.351-.806 1.87-.538.52-1.183.78-1.936.78h-.321c-.753 0-1.398-.26-1.936-.78-.537-.519-.805-1.142-.805-1.87v-.207c0-.728.268-1.35.805-1.87a2.687 2.687 0 0 1 1.936-.78h.321c.753 0 1.398.26 1.936.78.537.52.806 1.142.806 1.87v.207zM177.232 30.477c0 2.77 1.898 4.155 5.698 4.155a9.617 9.617 0 0 0 4.703-1.194c1.451-.796 2.642-1.697 3.575-2.702v-4.364h-5.86c-2.545 0-4.533.312-5.966.936-1.434.623-2.15 1.68-2.15 3.169m-1.666-17.352a24.215 24.215 0 0 1 9.352-1.87c3.656 0 6.485 1.074 8.493 3.221 1.792 1.87 2.688 4.208 2.688 7.013v14.702c0 .658-.243 1.212-.726 1.662a2.478 2.478 0 0 1-1.747.676c-.681 0-1.254-.226-1.72-.676a2.219 2.219 0 0 1-.698-1.662v-1.35c-.968.97-2.268 1.87-3.898 2.7-1.63.832-3.7 1.247-6.207 1.247-2.474 0-4.535-.692-6.182-2.077-1.72-1.455-2.581-3.36-2.581-5.715 0-2.562 1.004-4.572 3.01-6.026 2.186-1.593 5.304-2.39 9.353-2.39h6.505v-.415c0-2.32-.592-3.974-1.774-4.961-1.183-.988-2.992-1.481-5.429-1.481-2.079 0-4.462.415-7.15 1.246-.287.07-.609.104-.967.104s-.734-.182-1.128-.545c-.395-.364-.592-.926-.592-1.688 0-.762.465-1.333 1.398-1.715" fill="#FFF"/><g><mask id="b" fill="#fff"><use xlink:href="#a"/></mask><path d="M205.505.761c.465-.45 1.048-.675 1.747-.675.7 0 1.28.226 1.746.675.466.45.7 1.023.7 1.715V36.19a2.22 2.22 0 0 1-.7 1.662c-.466.45-1.047.676-1.746.676-.7 0-1.282-.226-1.747-.676a2.217 2.217 0 0 1-.698-1.662V2.476c0-.692.232-1.264.698-1.715" fill="#FFF" mask="url(#b)"/></g><path d="M117.254 37.33l-16.352 4.434a.805.805 0 0 1-.988-.536l-.668-2.299a.772.772 0 0 1 .555-.955l16.353-4.435a.805.805 0 0 1 .988.537l.668 2.299a.772.772 0 0 1-.556.955M117.254 43.557l-16.352 4.434a.805.805 0 0 1-.988-.537l-.668-2.298a.771.771 0 0 1 .555-.955l16.353-4.435a.805.805 0 0 1 .988.537l.668 2.299a.772.772 0 0 1-.556.955" fill="#F5F6F7"/><g><mask id="d" fill="#fff"><use xlink:href="#c"/></mask><path d="M100.902 53.971a.805.805 0 0 1-.988-.537l-.668-2.298a.771.771 0 0 1 .555-.956l16.353-4.434a.805.805 0 0 1 .988.536l.668 2.3a.772.772 0 0 1-.556.954l-16.352 4.435z" fill="#F5F6F7" mask="url(#d)"/></g><path d="M101.98 24.038s1.057-3.987 2.214-3.934c1.287.06.73 4.601 2.02 4.585 1.112-.015.525-3.937 1.636-3.999.537-.03.8.823 1.042 1.749.284 1.091.537 2.283 1.17 2.25 1.089-.058.548-3.958 1.637-3.906.85.04.138 2.95.962 3.162.929.238 2.02-3.162 2.02-3.162" stroke="#FFF"/></g></svg>
